X:1
T:Fauré: Elégie op. 24 for viola and piano
T:Elégie op. 24 for viola and piano
T:Gabriel Fauré
C:Gabriel Fauré
%%score 1 { 2 | ( 3 4 ) }
L:1/8
Q:1/8=80
M:4/4
K:Eb
V:1 alto nm="Viola" snm="Vla."
V:2 treble nm="Klavír" snm="Klv."
V:3 bass 
V:4 bass 
V:1
 z8 |!f! E2 D2 (CD)(CG,) | B,2 A,2 (G,A,)(G,E,) | G,2 F,2 (E,F,)(E,C,) | E,2 D,2 C,4 | %5
!mp! (E2 D2) (CDCG,) | (B,2 A,2) (G,A,G,E,) | (G,2 F,2) (E,F,E,C,) | (E,2 D,2) C,4 | %9
 G,2 G,3 (G,A,C) | =B,2 B,3 (CEA) |!<(! G3 G!<)!!f! (BA)(GF) |!>(! (E3 C) B,4!>)! | %13
!mp! B,2 B,3 (A,G,F,) | F2 F3 (EDC) |!ff! ^F2 GG, F2 GG, | ^F2!>(! G6!>)! |!mp! (E2 D2) (CDCG,) | %18
 (B,2 A,2) (G,A,G,E,) | (G,2 F,2) (E,F,E,C,) | (E,2 D,2) C,4 | (E,2 D,2) C,4 | z4!p! (A,B,A,E,) | %23
 (A,B,A,E,) (B,CB,=A,) | (G,=A,B,_A,) (G,E,) A,2 | (^CECE,) (=C^C=CE,) | (^CECE,) (=C^C=CE,) | %27
 (FGFB,) (GAGB,) | (=A_AGB,) (=A_AGF) | z/!mp! e^ce/(3(=c/^c/e/) (e/G)(AG/)(3(F/=c/f/) | %30
 (f/Bc/) (3(^c/=c/^c/)(3(d/c/d/) (e>B) (c=c) | %31
 z/ (=Ac/) (3(A/B/c/(3^c/e/f/) (f/df/) (3(d/e/f/(3g/a/=c/) | %32
 (c/=AB/) (3(d/e/)g/(3a/c'/c/!<(! (c/B=B/) (3(c/B/c/)(3(=e/f/g/)!<)! | %33
!f! (a/b/)(a/A/) (3(c/d/c/)(3(A/F/C/) (E/F/)(E/^F,/) (3(C/D/C/)(3(E,/D,/C,/) | %34
 G,2 z2 (6:4:6(g/4a/4g/4)(d/4e/4d/4)(6:4:6(G/4A/4G/4)(D/4E/4D/4) (6:4:6(G,/4A,/4G,/4)(D/4E/4D/4)(6:4:6(G/4A/4G/4)(d/4e/4d/4) | %35
 g z z2 (6:4:6(g/4a/4g/4)(^c/4e/4c/4)(6:4:6(G/4A/4G/4)(^C/4E/4C/4) (6:4:6(G,/4A,/4G,/4)(C/4E/4C/4)(6:4:6(G/4A/4G/4)(c/4e/4c/4) | %36
 g z (6:4:6(A,/4B,/4A,/4B,/4C/4D/4)(6:4:6(=E/4F/4G/4A/4B/4c/4) z2 (6:4:6(C/4=B,/4C/4D/4E/4D/4)(6:4:6(F/4E/4D/4C/4B,/4C/4) | %37
 (6:4:6(G,/4A,/4G,/4A,/4B,/4C/4(6:4:6D/4E/4F/4G/4A/4G/4) (6:4:6(F/4E/4D/4E/4D/4C/4(6:4:6B,/4A,/4G,/4A,/4B,/4C/4) (6:4:6(D/4E/4F/4G/4=A/4=B/4)(6:4:6(c/4d/4e/4f/4g/4a/4) (6:4:6(g/4f/4e/4)(d/4e/4f/4)(6:4:6^f/4g/4=a/4=b/4c'/4d'/4 | %38
 e'2 d'2 c'd'c'g | b2 a2 gage | g2 f2 efec | (e2 ^c2)!>(! =c4!>)! |!mf!!>(! (E2 ^C2) =C4!>)! | %43
!p! (E,2 ^C,2) =C,4- | C,4- C,4- | C,4 z/ c^c=c/(3(B/c/^c/) | %46
 (^c/e)(f/ (3(f/)g/a/)(3(e/=c/A/) G/AGF/(3G/A/B/ | %47
 =B/c(d/ (3(d/)e/c/(3G/E/F/) (G/AG)(F/(3G/A/_B/) | %48
 (=B/c(d/) (3d/e/c/(3G/A/_B/) (=B/c)(d/ (3(d/)e/c/(3G/A/_B/) | (=B/cG)(ED/) (=B,C) z2 | %50
 (=B,/CG,)(E,D,/) C,4- | C,4- C,4 | z4 z4 | z8 | z8 | z8 | z8 | z8 | z8 | z8 |] %60
V:2
!mf! (.[CEG].[CEG].[CEG].[CEG] .[CEG].[CEG].[CEG].[CEG]) | %1
 (.[CEG].[CEG].[CFG].[CFG] .[CG].[CG].[CG].[CF]) | (.[CE].[CE].[CE].[CE] .[CE].[CE].C.C) | z8 | %4
 z8 |!p! (.[Gcg].[Gcg].[Gcg].[Gcg] .[Gcg].[Gcg].[Gcg].[Fcg]) | %6
 (.[Ece].[Ece].[Ece].[Ece] .[Ece].[Ece].[Ece].[Ece]) | %7
 (.[CEc].[CEc].[CFc].[CFc] .[CGc].[CGc].[CAc].[CAc]) | %8
 (.[C=Ac].[CAc].[=B,F=B].[B,FB] .[CEc].[CFc].[CEc].[Cc]) | %9
 (.[G,DG].[G,DG].[A,EG].[A,EG] .[CG].[=B,FG].[CFA].[CEA]) | %10
 [=B,DA][B,DA][B,DA][B,DA] [DFA][CEA][A,EA][E,A,E] | [D=E][DE][DE][DE] [DE][DF][DG][DA] | %12
 [_DA_d][CAc][B,EB][A,EA] [A,EA][G,EG][_G,E_G][DF] | %13
!p! [C,_DE][C,DE][D,DF][^D,D^F] [E,DG][=D,D=F]!<(![C,DE][D,CF] | %14
 [G,FG][^G,^FG][=A,F=A][^A,F^A] [=B,F=B][Gc][_Ad][ce]!<)! | %15
!mf!!mf!!mf! ([C^Fc]2 [=B,G=B])[Gg] ([CFc]2 [B,GB])[Gg] |!>(! ([C^Fc]2 [B,G=B])(.G .G.G.G) z!>)! | %17
!p!!p!!p! (.[Gcg].[Gcg].[Gcg].[Gcg] .[Gcg].[Gcg].[Gcg].[Fcg]) | %18
 (.[Ece].[Ece].[Ece].[Ece] .[Ece].[Ece].[Ece].[Ece]) | %19
 (.[CEc].[CEc].[CFc].[CFc] .[CGc].[CGc].[CAc].[CAc]) | (.[C=Ac].[CAc].[=B,F=B].[B,FB]) [CEc]4 | %21
 ([C=Ac][CAc][=B,F=B][B,FB]) [CEc]4 | %22
 E,/4C/4E/4C/4E,/4_D/4E/4D/4 E,/4C/4E/4C/4E,/4C/4E/4C/4 E,/4C/4E/4C/4E,/4C/4E/4C/4 E,/4C/4E/4C/4E,/4C/4E/4C/4 | %23
 z/ (e_de/)(3(c/d/e/) e/GAG/(3(F/c/f/) | (f/Bc/) (3(_d/c/d/(3=d/_d/=d/) (e>B _dc) | %25
 z/ (=Ac/) (3(A/B/c/(3_d/e/f/) (f/=df/) (3(d/e/f/(3g/a/c/) | %26
 (c/=Ac/) (3(A/B/c/(3_d/e/f/) f/=df/ (3(d/e/g/(3a/c'/c/) | %27
 (c/=Ac/) (3(A/B/d/(3e/f/c/) (c/Ac/) (3(A/B/d/(3e/g/G/) | %28
 (G/=EF/) (3(=A/B/d/(3e/g/G/) (G/EF/) (3(G/_A/=A/(3B/c/_d/) | %29
 E,/4C/4E/4C/4E,/4_D/4E/4D/4 E,/4C/4E/4C/4E,/4C/4E/4C/4 E,/4D/4E/4D/4E,/4D/4E/4D/4 E,/4D/4E/4D/4F,/4C/4E/4C/4 | %30
 F,/4B,/4E/4B,/4F,/4C/4E/4C/4 F,/4B,/4_D/4B,/4_F,/4_C/4=D/4C/4 E,/4B,/4_D/4B,/4E,/4G,/4D/4G,/4 E,/4G,/4E/4G,/4E,/4A,/4E/4A,/4 | %31
 E,/4G,/4E/4G,/4E,/4G,/4E/4G,/4 E,/4G,/4E/4G,/4E,/4G,/4E/4G,/4 E,/4A,/4E/4A,/4E,/4A,/4E/4A,/4 E,/4A,/4E/4A,/4E,/4A,/4E/4A,/4 | %32
 A,/4F/4A/4F/4G,/4E/4G/4E/4 A,/4E/4G/4E/4A,/4E/4G/4E/4!<(! A,/4F/4A/4F/4A,/4F/4A/4F/4 A,/4F/4A/4F/4A,/4F/4A/4F/4!<)! | %33
!mf! A,/4C/4[FA]/4C/4A,/4C/4F/4A/4 [cfa] z =A,/4C/4[^F=A]/4C/4A,/4C/4F/4A/4 [c^fc'] z | %34
 (6:4:6G/4d/4g/4d/4G/4d/4(6:4:6A/4d/4a/4d/4A/4d/4 (6:4:6G/4d/4g/4d/4G/4d/4(6:4:6D/4G/4d/4G/4D/4G/4 [Gdg] z z2 | %35
 (6:4:6G/4_d/4g/4d/4G/4d/4(6:4:6A/4d/4a/4d/4A/4d/4 (6:4:6G/4d/4g/4d/4G/4d/4(6:4:6_D/4A/4d/4A/4D/4A/4 [Gdg] z z2 | %36
 (6:4:6G/4c/4g/4c/4G/4c/4(6:4:6=E/4c/4=e/4c/4E/4c/4 [Fcf] z (6:4:6F/4G/4f/4G/4F/4G/4(6:4:6D/4G/4d/4G/4D/4G/4 [E=Ae] z | %37
 [dgd'] z z2 [g=bd'g'] z z2 | %38
 (6:4:6G,/4C/4G/4G/4c/4g/4(6:4:6g/4c/4G/4G/4C/4G,/4 (6:4:6G,/4C/4G/4G/4c/4g/4(6:4:6g/4c/4G/4G/4C/4G,/4 (6:4:6G,/4C/4G/4G/4c/4g/4(6:4:6g/4c/4G/4G/4C/4G,/4 (6:4:6G,/4C/4G/4G/4c/4g/4(6:4:6g/4c/4G/4G/4C/4G,/4 | %39
 (6:4:6E,/4G,/4E/4E/4G/4e/4(6:4:6e/4G/4E/4E/4G,/4E,/4 (6:4:6E,/4G,/4E/4E/4G/4e/4(6:4:6e/4G/4E/4E/4G,/4E,/4 (6:4:6E,/4G,/4E/4E/4G/4e/4(6:4:6e/4G/4E/4E/4G,/4E,/4 (6:4:6E,/4G,/4E/4E/4G/4e/4(6:4:6e/4G/4E/4E/4G,/4E,/4 | %40
 (6:4:6C,/4E,/4C/4C/4E/4c/4(6:4:6c/4E/4C/4C/4E,/4C,/4 (6:4:6C,/4E,/4C/4C/4E/4c/4(6:4:6c/4E/4C/4C/4E,/4C,/4 (6:4:6C,/4E,/4C/4C/4E/4c/4(6:4:6c/4E/4C/4C/4E,/4C,/4 (6:4:6C,/4E,/4C/4C/4E/4c/4(6:4:6c/4E/4C/4C/4E,/4C,/4 | %41
[K:bass] (6:4:6z/4 [A,C]/4F,/4 z/4 [A,_D]/4F,/4 (6:4:6z/4 [A,C]/4F,/4 z/4 A,/4F,/4 (6:4:6z/4 [A,D]/4F,/4 z/4 [A,E]/4F,/4 (6:4:6z/4 [A,D]/4F,/4 z/4 A,/4F,/4[K:treble] (6:4:6z/4 [CE]/4A,/4 z/4 [CF]/4A,/4 (6:4:6z/4 [CE]/4A,/4 z/4 [CD]/4A,/4 (6:4:6z/4 [CE]/4A,/4 z/4 [CF]/4A,/4 (6:4:6z/4 [CE]/4A,/4 z/4 D/4A,/4 | %42
!>(! (6:4:6z/4 [A,C]/4F,/4 z/4 [A,_D]/4F,/4 (6:4:6z/4 [A,C]/4F,/4 z/4 A,/4F,/4 (6:4:6z/4 [A,D]/4F,/4 z/4 [A,E]/4F,/4 (6:4:6z/4 [A,D]/4F,/4 z/4 A,/4F,/4[K:treble] (6:4:6z/4 [CE]/4A,/4 z/4 [CF]/4A,/4 (6:4:6z/4 [CE]/4A,/4 z/4 [CD]/4A,/4 (6:4:6z/4 [CE]/4A,/4 z/4 [CF]/4A,/4 (6:4:6z/4 [CE]/4A,/4 z/4 D/4A,/4!>)! | %43
[K:bass] (3z/4!p! C/4G,/4 (3z/4 _D/4G,/4 (3z/4 C/4G,/4 (3z/4 G,/4E,/4 (3z/4 B,/4F,/4 (3z/4 C/4F,/4 (3z/4 B,/4F,/4 (3z/4 F,/4_D,/4[K:treble] z/ (c'_d'c'/(3b/c'/d'/) | %44
 (_d'/e'f'/) (3(f'/g'/a'/(3e'/c'/a/) b/([cc']_dc/(3B/c/d/) | %45
 (_d/e(f/) (3(f/)g/a/(3e/c/A/) B/4=E/4G/4E/4 z/4 E/4G/4E/4 z/4 E/4G/4E/4 z/4 E/4G/4E/4 | %46
 z/4 E/4A/4E/4 z/4 E/4A/4E/4 z/4 E/4A/4E/4 z/4 C/4E/4C/4 z/4 =B,/4D/4B,/4 z/4 B,/4D/4B,/4 z/4 B,/4D/4B,/4 z/4 B,/4D/4B,/4 | %47
 z/4 C/4E/4C/4 z/4 C/4E/4C/4 z/4 C/4E/4C/4 z/4 C/4E/4C/4 z/4 =B,/4D/4B,/4 z/4 B,/4D/4B,/4 z/4 B,/4D/4B,/4 z/4 B,/4D/4B,/4 | %48
 z/4 C/4E/4C/4 z/4 C/4E/4C/4 z/4 C/4E/4C/4 z/4 C/4E/4C/4 z/4!pp! C/4E/4C/4 z/4 C/4E/4C/4 z/4 C/4E/4C/4 z/4 C/4E/4C/4 | %49
 z/4 C/4E/4C/4G,/4C/4E/4G/4 c/4e/4g/4e/4c/4e/4g/4c'/4 (d'/e'c'gf/) | (de) z2 z2 [CE]2- | %51
 [CE]2 [CE]2 [CE]4 | z4 z4 | z8 | z8 | z8 | z8 | z8 | z8 | z8 |] %60
V:3
 (.[C,G,].[C,G,].[C,G,].[C,G,] .[C,G,].[C,G,].[C,G,].[C,G,]) | %1
 (.[C,G,].[C,G,].[D,G,].[D,G,] .[E,G,].[F,G,].[E,G,].[D,G,]) | %2
 [C,G,][C,G,][C,A,][C,A,] [C,B,][C,B,][B,,E,G,][B,,E,G,] | %3
 (.[A,,E,C].[A,,E,C].[A,,F,C].[A,,F,C] .[G,,G,C].[G,,G,C].[_G,,A,C].[G,,A,C]) | %4
 (.[F,,A,C].[F,,A,C].[G,,F,=B,].[G,,F,B,] .[C,E,G,C].[C,F,A,C].[C,E,G,C].[C,E,C]) | %5
!p! [C,,C,]2 [D,,D,]2 [E,,E,][F,,F,][E,,E,][D,,D,] | [C,,C,]2 [A,,,A,,]2 [E,,,E,,]4 | %7
 [=A,,,=A,,]2 [A,,,_A,,]2 [G,,,G,,]2 [_G,,,_G,,]2 | [F,,,F,,]2 [G,,,G,,]2 [C,,C,]A,G,E, | %9
 =B,,2 C,2 E,D,E,G, |!<(! [F,,F,]2 [F,,=E,]2 [E,,_E,]2 [C,,C,]2!<)! | %11
!mf! [B,,,B,,]2 [=A,,,=A,,]2 [_A,,,_A,,]4 |!>(! [A,,,A,,]2 [C,,C,]2 [E,,E,]2 E,,[F,,F,]!>)! | %13
!p! _G,,2 F,,2 =E,,F,,!<(!=G,,A,, | %14
 [=B,,,=B,,]2 [C,,C,][^C,,^C,] [D,,D,][E,,E,][F,,F,][G,,G,]!<)! | %15
!mf!!mf! ([E,A,]2 [D,G,])G, (A,2 [E,G,])[D,G,] |!>(! ([E,A,]2 [D,G,])(.G, .G,.G,.G,) z!>)! | %17
!p!!p! [C,,C,]2 [D,,D,]2 [E,,E,][F,,F,][E,,E,][D,,D,] | [C,,C,]2 [A,,,A,,]2 [E,,,E,,]4 | %19
 [=A,,,=A,,]2 [A,,,_A,,]2 [G,,,G,,]2 [_G,,,_G,,]2 | %20
 [F,,,F,,]2 [G,,,G,,]2 [A,,,A,,][B,,,B,,][A,,,A,,][E,,,E,,] | %21
 [F,,,F,,]2 [G,,,G,,]2 [A,,,A,,][B,,,B,,][A,,,A,,][E,,,E,,] | A,,B,,A,,E,, z4 | %23
 E,/4C/4E/4C/4E,/4_D/4E/4D/4 E,/4C/4E/4C/4E,/4C/4E/4C/4 C,/4D/4E/4D/4C,/4D/4E/4D/4 C,/4D/4E/4D/4F,/4C/4E/4C/4 | %24
 F,/4B,/4E/4B,/4F,/4C/4E/4C/4 F,/4B,/4_D/4B,/4_F,/4_C/4=D/4C/4 E,/4B,/4_D/4B,/4E,/4G,/4D/4G,/4 E,/4G,/4E/4G,/4E,/4A,/4E/4A,/4 | %25
 E,/4G,/4E/4G,/4E,/4G,/4E/4G,/4 E,/4G,/4E/4G,/4E,/4G,/4E/4G,/4 E,/4A,/4E/4A,/4E,/4A,/4E/4A,/4 E,/4A,/4E/4A,/4E,/4A,/4E/4A,/4 | %26
 E,/4G,/4E/4G,/4E,/4G,/4E/4G,/4 E,/4G,/4E/4G,/4E,/4G,/4E/4G,/4 E,/4A,/4E/4A,/4E,/4A,/4E/4A,/4 E,/4A,/4E/4A,/4E,/4A,/4E/4A,/4 | %27
 A,/4B,/4D/4B,/4A,/4B,/4D/4B,/4 A,/4B,/4D/4B,/4A,/4B,/4D/4B,/4 z/4 E/4G/4E/4B,/4E/4A/4E/4 B,/4E/4G/4E/4G,/4B,/4E/4B,/4 | %28
 C/4E/4C/4=A,/4B,/4D/4B,/4_A,/4 E/4G/4E/4B,/4G,/4B,/4E/4B,/4 C/4E/4C/4=A,/4B,/4D/4B,/4_A,/4 B,/4E/4B,/4G,/4_D/4E/4D/4G,/4 | %29
 A,,B,,A,,E,, B,,C,B,,=A,, | G,,=A,,B,,_A,, G,,E,, A,,2 | _D,E,D,E,, C,D,C,E,, | %32
 D,_D,C,E,,!<(! =D,_D,C,A,,!<)! |!mf! F,,2 z2 D,,2 z2 | %34
 (6:4:6G,/4D,/4G,,/4D,/4G,/4D,/4(6:4:6A,/4D,/4A,,/4D,/4A,/4D,/4 (6:4:6G,/4D,/4G,,/4D,/4G,/4D,/4(6:4:6D,/4G,,/4D,,/4G,,/4D,/4G,,/4 [G,,D,G,] z z2 | %35
 (6:4:6=E,/4B,,/4=E,,/4B,,/4E,/4B,,/4(6:4:6F,/4B,,/4F,,/4B,,/4F,/4B,,/4 (6:4:6E,/4B,,/4E,,/4B,,/4E,/4B,,/4(6:4:6B,/4F,/4B,,/4F,/4B,/4F,/4 [E,,B,,E,] z z2 | %36
 (6:4:6=A,,,/4C,,/4=A,,/4C,,/4A,,,/4C,,/4(6:4:6A,,/4C,/4=A,/4C,/4A,,/4C,/4 [_A,,C,_A,] z (6:4:6G,,,/4C,,/4G,,/4C,,/4G,,,/4C,,/4(6:4:6G,,/4C,/4G,/4C,/4G,,/4C,/4 [^F,,C,^F,] z | %37
 [D,G,C] z z2 [D,F,G,=B,] z z2 | z/ (A,/G,/F,/) z/ (A,/G,/F,/) z/ (A,/G,/F,/) z/ (A,/G,/F,/) | %39
 z/ (F,/E,/D,/) z/ (F,/E,/D,/) z/ (F,/E,/D,/) z/ (F,/E,/D,/) | %40
 z/ (D,/C,/B,,/) z/ (D,/C,/B,,/) z/ (D,/C,/B,,/) z/ (D,/C,/B,,/) | %41
 (C,/_D,/C,/A,,/) (D,/E,/D,/A,,/) (E,/F,/E,/D,/) (E,/F,/E,/D,/) | %42
!>(! (C,/_D,/C,/A,,/) (D,/E,/D,/A,,/) (E,/F,/E,/D,/ E,/F,/E,/D,/)!>)! | %43
!p!!p! C,/_D,/C,/G,,/ B,,/C,/B,,/F,,/ C,,/4=E/4G/4E/4C/4E/4G/4E/4 B,/4E/4G/4E/4_D/4E/4G/4E/4 | %44
 z/4 E/4A/4E/4_D/4E/4A/4E/4 C/4E/4A/4E/4B,/4E/4G/4E/4[K:bass] C,/4[K:treble]=E/4G/4E/4C/4E/4G/4E/4 B,/4E/4G/4E/4D/4E/4G/4E/4 | %45
 z/4 E/4A/4E/4_D/4E/4A/4E/4 C/4E/4A/4E/4B,/4E/4A/4E/4[K:bass] C,,(CB,D) | C,(_DCA,) C,,(F,A,G,) | %47
 C,,(A,^F,G,) C,,(=F,A,G,) | C,,(A,^F,G,)!pp! C,,(A,F,G,) | C,, z z2[K:treble] (d/ecGF/) | %50
 (DE) z2[K:bass] z2 [C,,G,,C,E,G,]2- | [C,,G,,C,E,G,]2 [C,,G,,C,E,G,]2 [C,,G,,C,E,G,]4 | z4 z4 | %53
 z8 | z8 | z8 | z8 | z8 | z8 | z8 |] %60
V:4
 x8 | x8 | x8 | x8 | x8 | x8 | x8 | x8 | x8 | x8 | x8 | x8 | x8 | x8 | x8 | x8 | x8 | x8 | x8 | %19
 x8 | x8 | x8 | x8 | x8 | x8 | x8 | x8 | x8 | x8 | x8 | x8 | x8 | x8 | x8 | x8 | x8 | x8 | x8 | %38
 C,,2 D,,2 E,,>F,, E,,D,, | C,,4 C,,2 B,,2 | A,,4 G,,2 _G,,2 | F,,2 _D,,2 A,,4 | F,,2 _D,,2 A,,4 | %43
 E,,2 _D,,2 C,,CB,_D | z _DCB,[K:bass] x/4[K:treble] x15/4 | x4[K:bass] x4 | x8 | x8 | x8 | %49
 x4[K:treble] G2 z2 | G,2 z2[K:bass] x4 | x8 | x4 z4 | x8 | x8 | x8 | x8 | x8 | x8 | x8 |] %60

